X: 13031
T: Tarey Wool
%R: air, march, reel
B: James Oswald "The Caledonian Pocket Companion" v.1 b.3 p.3 (top 7 staffs continued from p.2)
S: https://ia800501.us.archive.org/18/items/caledonianpocket01rugg/caledonianpocket01rugg_bw.pdf
Z: 2020 John Chambers <jc:trillian.mit.edu>
M: C
L: 1/8
K: G
|: "_Slow"\
G3A {c}B2(AG) | (EDE)G A4 | G3A {c}B2(AB) | (cB)(AG) (Bc)d2 ::\
e2(ge) d2(ed) | B2(gB) A4 | e2ge d2d2 | (ga)(ba) g4 |
e2g2 d2e2 | B2g2 TA4 | G3A B2(AB) | (dB)(AG) d4 ::\
g2g2 b2ag | (ede)g a4 | g2g2 b2ag | (c'b)(ag) bc'd'2 :|
|:\
(efg)e (dg)(fe) | (dB)(AG) A4 | e3g (dB)d2 | bgab g4 |\
(gf)(fe) (ed)Bg | (dB)(AG) TA4 | G3A B2(AB) | (dB) (AG) d4 :|
